X: 37933
T: Space Party
R: reel
M: 4/4
K: Edorian
|:DEGA B3A|Geed BE E2|BAGE AGEG|DEGB AGAB|
G3A B3A|Geed BE E2|BAGE AGEG|1 DEGA G3E:|2 DEGA GABd||
|:e3d g3e|dged BdAB|edBA GE E2|edBG A2 (3Bcd|egde g3e|
dged BdAB|1 edBA GE E2|DEGA G2 (3Bcd:|2 edBA EGBA|GEDE G3E||

